X:103
T:Dansen ungdom
T:Dansa flickor
R:sl\"angpolska
A:Sm{\aa}land
Z:id:hn-sp-103
M:3/4
L:1/16
K:Em
B2B2 G4 B4 | BdcB A2A2 B4 |
w:Dan-sen ung-dom me_dan_ ni f\"or-m{\aa}r
B2G2 E3F G2F2 |1 E2D2 E4 B4 :|2 E2D2 E4 E4 ||
w:inn-an e-der ung-a {\aa}r f\"or-svin-na. {\aa}r f\"or-svin-na.
|: {Bc}d3B G2BG F2BF | G2GF G2A2 B4 |
w:Ja, det g{\aa}r s{\aa}_ lust-igt,_ ja det_ g{\aa}r s{\aa} l\"att.
{Bc}d3B G2BG F2BF | G2GF E2D2 E4 |
w:Ack, det g{\aa}r s{\aa}_ lust-igt,_ ack det_ g{\aa}r s{\aa} l\"att.
{Bc}d3B G2BG F2BF | G2GF G2A2 B4 |
w:Ja, det g{\aa}r s{\aa}_ lust-igt,_ ja det_ g{\aa}r s{\aa} l\"att.
E3F G2F2 E2D2 | E4 E8 :|
w:Inn-an ung-a {\aa}r f\"or-svinn-a.
P:variant
|: B4 G2G2 B4 | d2cB A2A2 B4 | B3G E2F2 G2F2 | E2D2 E4 B4 |
B2B2 G4 B4 | d2cB A2A2 B4 | E3F G2F2 E2D2 | E4 E8 :|
|: d3B G2G2 F2F2 | G3F G2A2 A2B2 | d3B G2G2 F2F2 | G3F E2D2 D2E2 |
d3B G2G2 F2F2 | G3F G2A2 A2B2 | E3F G2F2 E2D2 | E4 E8 :|

